src/lib/packages/icons/src/assets/line/chat-dots-check.svg

<svg width="24" height="24" viewBox="0 0 24 24" fill="none" xmlns="http://www.w3.org/2000/svg">
<path d="M12.751 20.998C12.751 21.412 12.415 21.748 12.001 21.748C10.601 21.748 9.19204 21.437 7.92604 20.848C7.67804 20.73 7.36904 20.721 7.05104 20.823L4.56203 21.659C4.37803 21.72 4.1909 21.75 4.0049 21.75C3.5479 21.75 3.10408 21.57 2.76809 21.234C2.29408 20.761 2.13108 20.074 2.34108 19.442L3.1819 16.941C3.2799 16.634 3.27102 16.326 3.15602 16.083C2.56402 14.81 2.25392 13.4 2.25392 12C2.25392 6.625 6.62697 2.25098 12.002 2.25098C17.378 2.25098 21.751 6.624 21.751 12C21.751 12.371 21.7301 12.73 21.6861 13.09C21.6361 13.501 21.2671 13.791 20.8511 13.744C20.4401 13.694 20.147 13.32 20.198 12.909C20.234 12.609 20.252 12.309 20.252 12C20.252 7.452 16.5519 3.75098 12.0029 3.75098C7.45495 3.75098 3.7549 7.451 3.7549 12C3.7549 13.183 4.01791 14.374 4.51491 15.444C4.79091 16.025 4.82713 16.724 4.61013 17.407L3.76613 19.918C3.72413 20.043 3.7881 20.132 3.8301 20.174C3.8721 20.216 3.96193 20.28 4.08693 20.238L6.58498 19.399C7.27898 19.178 7.97994 19.212 8.56594 19.493C9.62894 19.987 10.8199 20.25 12.0029 20.25C12.4149 20.248 12.751 20.583 12.751 20.998ZM20.47 17.136L17.667 19.939L16.53 18.803C16.237 18.51 15.762 18.51 15.469 18.803C15.176 19.096 15.176 19.571 15.469 19.864L17.136 21.531C17.282 21.677 17.474 21.751 17.666 21.751C17.858 21.751 18.0501 21.678 18.1961 21.531L21.5291 18.198C21.8221 17.905 21.8221 17.43 21.5291 17.137C21.2371 16.844 20.763 16.844 20.47 17.136ZM12.02 11H12.01C11.458 11 11.0149 11.448 11.0149 12C11.0149 12.552 11.468 13 12.02 13C12.573 13 13.02 12.552 13.02 12C13.02 11.448 12.572 11 12.02 11ZM16.02 13C16.573 13 17.02 12.552 17.02 12C17.02 11.448 16.573 11 16.02 11H16.01C15.458 11 15.0149 11.448 15.0149 12C15.0149 12.552 15.468 13 16.02 13ZM8.01003 11C7.45803 11 7.01491 11.448 7.01491 12C7.01491 12.552 7.46804 13 8.02004 13C8.57304 13 9.02004 12.552 9.02004 12C9.02004 11.448 8.57304 11 8.02004 11H8.01003Z" fill="currentColor"/>
</svg>

<svg xmlns="http://www.w3.org/2000/svg" width="24" height="24" fill="none"><path fill="currentColor" d="M12.751 20.998a.75.75 0 0 1-.75.75c-1.4 0-2.809-.311-4.075-.9-.248-.118-.557-.127-.875-.025l-2.489.836a1.745 1.745 0 0 1-1.794-.425 1.743 1.743 0 0 1-.427-1.792l.84-2.501c.099-.307.09-.615-.025-.858A9.74 9.74 0 0 1 2.254 12c0-5.375 4.373-9.749 9.748-9.749 5.376 0 9.749 4.373 9.749 9.749 0 .371-.02.73-.065 1.09a.75.75 0 1 1-1.488-.181c.036-.3.054-.6.054-.909 0-4.548-3.7-8.249-8.25-8.249-4.547 0-8.247 3.7-8.247 8.249a8.23 8.23 0 0 0 .76 3.444c.276.581.312 1.28.095 1.963l-.844 2.511a.242.242 0 0 0 .064.256.243.243 0 0 0 .257.064l2.498-.839c.694-.221 1.395-.187 1.98.094a8.218 8.218 0 0 0 3.438.757.746.746 0 0 1 .748.748Zm7.719-3.862-2.803 2.803-1.137-1.136a.75.75 0 1 0-1.061 1.061l1.667 1.667a.748.748 0 0 0 1.06 0l3.333-3.333a.75.75 0 0 0-1.059-1.062ZM12.02 11h-.01a.996.996 0 0 0-.995 1c0 .552.453 1 1.005 1a1 1 0 1 0 0-2Zm4 2a1 1 0 1 0 0-2h-.01a.996.996 0 0 0-.995 1c0 .552.453 1 1.005 1Zm-8.01-2a.996.996 0 0 0-.995 1c0 .552.453 1 1.005 1a1 1 0 1 0 0-2h-.01Z"/></svg>
